!!!COM: Kineya Rokuzaemon
!!!OTL: "越後獅子"
**kern	**text
*part1	*part1
*staff1	*staff1
*clefG2	*
*M2/4	*
8aL	.
8a	.
8b	.
8aJ	.
=2	=2
8bL	.
8a	.
8b	.
8ccJ	.
=3	=3
8eeL	.
8cc	.
8b	.
8aJ	.
=4	=4
4.f	.
8r	.
=5	=5
8fL	.
8a	.
8b	.
8aJ	.
=6	=6
4.f	.
8e	.
!!LO:LB
=7	=7
8fL	.
8a	.
8f	.
8eJ	.
=8	=8
8dL	.
8d	.
8d	.
8eJ	.
=9	=9
8fL	.
8e	.
8B	.
8dJ	.
=10	=10
4.e	.
8r	.
=11	=11
8d	.
4d	オノ
8e	ガ
=12	=12
8f	ス
4f	ガタ
8e	ヲ
!!LO:LB
=13	=13
8aL	ハ
8a	ナ
8b	ト
8aJ	ミ
=14	=14
4b	テ
8ccL	.
8eeJ	.
=15	=15
8ff#y	.
4ff#y	ニ
8ee	.
=16	=16
8ccL	ワ
8cc	.
8cc	ニ
8eeJ	.
=17	=17
8ff#y	.
4ff#y	サイ
8ee	.
=18	=18
8ccL	タ
16ee	.
16ccJ	.
8bL	リ
8aJ	.
!!LO:LB
=19	=19
8bL	.
8cc	サ
8ee	カ
8aJ	.
=20	=20
8ccL	セ
8b	.
8a	タ
8fJ	.
=21	=21
4.e	リ
8f	ソ
=22	=22
8aL	コ
8bJ	ナ
4cc	オ
=23	=23
4ee	ケ
8ccL	サ
8bJ	.
=24	=24
4a	ニ
8aL	イ
8fJ	ナ
!!LO:LB
=25	=25
4.a	コ
8b	ト
=26	=26
8ccL	イ
8b	.
8a	ワ
8fJ	.
=27	=27
4.e	レ
8e	.
=28	=28
8bL	.
8cc	ネ
8cc	マ
8bJ	リ
=29	=29
8ccL	ネ
8ee	マ
8cc	ラ
8bJ	ズ
=30	=30
8aL	マ
8b	チ
8cc	ア
8aJ	カ
!!LO:LB
=31	=31
8fL	ス
16a	.
16fJ	.
8eL	.
8dJ	ゴ
=32	=32
8eL	ザ
8fJ	レ
16aL	ハ
16a	ナ
16a	シ
16aJ	マ
=33	=33
8bL	ショ
8bJ	.
8ccL	コン
16cc	コ
16ccJ	マ
=34	=34
8bL	ツ
16cc	ノ
16bJ	.
8aL	コ
16b	カ
16aJ	.
=35	=35
8fL	ゲ
8e	デ
8d	.
8dJ	マ
!!LO:LB
=36	=36
8r	.
8eL	ノ
8f	ハ
8aJ	ノ
=37	=37
8fL	ヨ
8eJ	ニ
8BL	コン
16B	コ
16BJ	マ
=38	=38
8BL	ヤ
8dJ	カ
4e	ニ
=39	=39
8r	.
(>8cc	ヒ
4ee)	イ
=40	=40
8ccL	テ
8b	.
8a	.
8bJ	ウ
=41	=41
(>8ccL	ト
8aJ)	.
4f	.
!!LO:LB
=42	=42
8eL	ヤ
8d	.
8e	.
8aJ	シ
=43	=43
4.f	シ
8e	.
=44	=44
8fL	ノ
16f	.
16fJ	.
8eL	.
8dJ	.
=45	=45
8dL	.
8eJ	.
8r	.
(<16.bL	キョ
32aJ	.
=46	=46
4f)	.
(<4f	ク
=47	=47
4e)	.
4r	.
==	==
*-	*-
!!!RDF**kern: > = above
!!!RDF**kern: < = below
